X: 14402
T: Galway Belle, The
R: polka
M: 2/4
K: Eminor
|:E>F GA|Be B2|AF DF|EF/E/ D2|
E>F GA|Be B2|AF DF|1 E2 ED:|2 E2 E2||
|:ee B^c/d/|ee B2|AF DF|EF/E/ D2|
[1 ee B^c/d/|ee B2|AF DF|E2 E2:|
[2 E>F GA|Be B2|AF DF|E2 E2||

